src/logos/ifs_icon_dark.svg

<svg xmlns="http://www.w3.org/2000/svg" xml:space="preserve" style="fill-rule:evenodd;clip-rule:evenodd;stroke-linejoin:round;stroke-miterlimit:2" viewBox="0 0 1800 541"><path d="M1791.65 1056.05c0 15.04-1.9 28.56-5.71 40.57-3.81 12.02-8.84 22.61-15.09 31.79s-13.57 16.99-21.97 23.44c-8.4 6.44-17.09 11.72-26.07 15.82-8.99 4.1-18.12 7.13-27.4 9.08-9.27 1.95-18.01 2.93-26.22 2.93h-293.84v-76.17h293.84c14.65 0 26.03-4.3 34.13-12.89 8.11-8.6 12.16-20.12 12.16-34.57 0-7.03-1.07-13.48-3.22-19.34s-5.22-10.94-9.23-15.23c-4-4.3-8.89-7.62-14.65-9.96-5.76-2.35-12.15-3.52-19.19-3.52H1494c-12.31 0-25.59-2.2-39.85-6.59-14.25-4.395-27.49-11.475-39.69-21.241-12.21-9.766-22.37-22.559-30.47-38.379-8.11-15.82-12.16-35.156-12.16-58.008 0-22.851 4.05-42.138 12.16-57.861 8.1-15.723 18.26-28.516 30.47-38.379 12.2-9.863 25.44-16.992 39.69-21.387 14.26-4.394 27.54-6.592 39.85-6.592h259.28v76.172H1494q-21.675 0-33.84 13.184c-8.1 8.789-12.16 20.41-12.16 34.863 0 14.649 4.06 26.221 12.16 34.717q12.165 12.744 33.84 12.744h175.78q12.3.293 26.07 3.369c9.18 2.051 18.31 5.225 27.4 9.522q13.62 6.446 25.92 16.26c8.21 6.542 15.48 14.404 21.83 23.583 6.35 9.18 11.38 19.723 15.09 31.643 3.71 11.91 5.56 25.39 5.56 40.43" style="fill:#fff;fill-rule:nonzero" transform="matrix(1.24112 0 -.40326 1.24112 -83.483 -933.402)"/><path d="M1761.16 752.063v91.172h-264.73c-12.67 0-22.57 3.83-29.68 11.535-7.27 7.891-10.86 18.353-10.86 31.33 0 11.981 2.69 21.456 9.32 28.405 6.3 6.602 15.12 9.238 26.35 9.238h175.2s.58 0 .76.002c8.72.208 17.96 1.396 27.72 3.576 9.9 2.211 19.75 5.633 29.54 10.266q14.835 7.017 28.23 17.702c9.09 7.247 17.16 15.94 24.19 26.107 6.89 9.96 12.39 21.394 16.42 34.324 3.91 12.56 5.92 26.79 5.92 42.65 0 15.68-2 29.78-5.97 42.31-3.96 12.49-9.2 23.5-15.7 33.05-6.54 9.6-14.2 17.77-22.99 24.51-8.71 6.68-17.72 12.14-27.04 16.4-9.37 4.28-18.9 7.43-28.58 9.47-9.78 2.06-18.99 3.07-27.63 3.07h-304.17v-91.17h299.3c12.86 0 22.89-3.73 30.01-11.28 7.26-7.7 10.83-18.05 10.83-31 0-6.08-.87-11.64-2.73-16.7-1.64-4.48-3.93-8.38-6.99-11.66-2.85-3.07-6.36-5.39-10.47-7.06-4.74-1.93-10-2.81-15.78-2.81h-175.2c-13.09 0-27.23-2.32-42.4-7-15.6-4.8-30.07-12.555-43.42-23.238-13.41-10.722-24.65-24.72-33.54-42.09-8.62-16.824-13.13-37.407-13.13-61.707 0-23.851 4.28-43.96 12.74-60.37 8.42-16.339 19-29.62 31.68-39.87 12.74-10.289 26.55-17.708 41.43-22.292 14.94-4.605 28.87-6.87 41.77-6.87zm-15.77 15h-248.96c-11.71 0-24.33 2.131-37.91 6.314-13.64 4.205-26.29 11.044-37.97 20.482-11.72 9.476-21.46 21.782-29.25 36.887-7.75 15.036-11.58 33.501-11.58 55.354 0 21.403 3.6 39.491 11.19 54.308 7.31 14.271 16.39 25.859 27.4 34.668 11.06 8.848 23.05 15.256 35.97 19.238 13.34 4.111 25.77 6.186 37.28 6.186h175.2c8.28 0 15.82 1.47 22.6 4.23 7.41 3.01 13.67 7.33 18.82 12.86 4.95 5.31 8.82 11.57 11.47 18.81 2.44 6.65 3.72 13.98 3.72 21.97 0 15.96-4.54 28.65-13.49 38.14-9.09 9.64-21.82 14.5-38.25 14.5h-288.4v61.17h283.53c7.76 0 16.03-.94 24.81-2.79 8.88-1.87 17.61-4.77 26.2-8.69 8.65-3.95 17.02-9.04 25.11-15.24 8.01-6.15 15-13.61 20.96-22.37 6-8.81 10.82-18.99 14.47-30.52 3.65-11.49 5.46-24.45 5.46-38.84 0-14.22-1.71-26.95-5.21-38.21-3.4-10.9-7.95-20.562-13.76-28.961-5.67-8.193-12.14-15.222-19.46-21.061-7.48-5.962-15.35-10.903-23.63-14.818-8.37-3.96-16.78-6.886-25.24-8.776-8.6-1.922-16.75-2.98-24.25-3.161h-175.79c-17.68 0-31.4-5.855-41.32-16.25-9.58-10.046-14.99-23.708-14.99-41.028 0-15.93 4.51-28.71 13.45-38.397 9.1-9.873 21.76-14.833 37.99-14.833h253.83z" style="fill:#fff" transform="matrix(1.24112 0 -.40326 1.24112 -83.483 -933.402)"/><path d="M1310.44 1008h-233.35v-76.757h233.35zm33.98-172.265h-305.27v343.945h-76.175V797.942q0-7.91 2.929-14.941 2.93-7.032 8.057-12.305t12.158-8.203q7.033-2.93 15.231-2.93h343.07z" style="fill:#fff;fill-rule:nonzero" transform="matrix(1.24112 0 -.40326 1.24112 -112.245 -933.402)"/><path d="M1352.31 843.235h-305.28v343.945h-91.941V795.625c0-6.031 1.106-11.731 3.34-17.092q3.281-7.872 9.023-13.777 5.818-5.981 13.796-9.304c5.435-2.264 11.327-3.389 17.669-3.389h353.393zm-348.52-76.172c-19.453.221-32.715 14.981-32.929 33.197v371.92h60.399V828.235h305.27v-61.172zm314.53 156.68v91.757h-249.11v-91.757zm-233.34 15v61.757h217.57v-61.757z" style="fill:#fff" transform="matrix(1.24112 0 -.40326 1.24112 -112.245 -933.402)"/><path d="M815.74 759.563h76.172v420.117H815.74z" style="fill:#fff;fill-rule:nonzero" transform="matrix(1.24112 0 -.40326 1.24112 -138.48 -933.402)"/><path d="M899.798 1187.18V752.063h-91.944v435.117zm-76.172-420.117v405.117h60.4V767.063z" style="fill:#fff" transform="matrix(1.24112 0 -.40326 1.24112 -138.48 -933.402)"/><path d="M139.086 763.292h475.069v521.416H139.086z" style="fill:#f50" transform="matrix(.57065 0 -.32492 1 350.857 -753.984)"/><path d="M631.291 753.992H121.95v540.018h509.341zm-475.069 18.6v502.818h440.797V772.592z" style="fill:#f50" transform="matrix(.57065 0 -.32492 1 350.857 -753.984)"/></svg>

<?xml version="1.0" encoding="UTF-8" standalone="no"?>
<!DOCTYPE svg PUBLIC "-//W3C//DTD SVG 1.1//EN" "http://www.w3.org/Graphics/SVG/1.1/DTD/svg11.dtd">
<svg width="100%" height="100%" viewBox="0 0 1800 541" version="1.1" xmlns="http://www.w3.org/2000/svg" xmlns:xlink="http://www.w3.org/1999/xlink" xml:space="preserve" xmlns:serif="http://www.serif.com/" style="fill-rule:evenodd;clip-rule:evenodd;stroke-linejoin:round;stroke-miterlimit:2;">
    <g transform="matrix(1,0,0,1,-124.481,-753.984)">
        <g transform="matrix(1.68717,0,0,1.24112,-592.523,-179.418)">
            <g transform="matrix(0.735621,0,-0.239018,1,375.493,0)">
                <path d="M1791.65,1056.05C1791.65,1071.09 1789.75,1084.61 1785.94,1096.62C1782.13,1108.64 1777.1,1119.23 1770.85,1128.41C1764.6,1137.59 1757.28,1145.4 1748.88,1151.85C1740.48,1158.29 1731.79,1163.57 1722.81,1167.67C1713.82,1171.77 1704.69,1174.8 1695.41,1176.75C1686.14,1178.7 1677.4,1179.68 1669.19,1179.68L1375.35,1179.68L1375.35,1103.51L1669.19,1103.51C1683.84,1103.51 1695.22,1099.21 1703.32,1090.62C1711.43,1082.02 1715.48,1070.5 1715.48,1056.05C1715.48,1049.02 1714.41,1042.57 1712.26,1036.71C1710.11,1030.85 1707.04,1025.77 1703.03,1021.48C1699.03,1017.18 1694.14,1013.86 1688.38,1011.52C1682.62,1009.17 1676.23,1008 1669.19,1008L1494,1008C1481.69,1008 1468.41,1005.8 1454.15,1001.41C1439.9,997.015 1426.66,989.935 1414.46,980.169C1402.25,970.403 1392.09,957.61 1383.99,941.79C1375.88,925.97 1371.83,906.634 1371.83,883.782C1371.83,860.931 1375.88,841.644 1383.99,825.921C1392.09,810.198 1402.25,797.405 1414.46,787.542C1426.66,777.679 1439.9,770.55 1454.15,766.155C1468.41,761.761 1481.69,759.563 1494,759.563L1753.28,759.563L1753.28,835.735L1494,835.735C1479.55,835.735 1468.27,840.13 1460.16,848.919C1452.06,857.708 1448,869.329 1448,883.782C1448,898.431 1452.06,910.003 1460.16,918.499C1468.27,926.995 1479.55,931.243 1494,931.243L1669.78,931.243C1677.98,931.438 1686.67,932.561 1695.85,934.612C1705.03,936.663 1714.16,939.837 1723.25,944.134C1732.33,948.431 1740.97,953.851 1749.17,960.394C1757.38,966.936 1764.65,974.798 1771,983.977C1777.35,993.157 1782.38,1003.7 1786.09,1015.62C1789.8,1027.53 1791.65,1041.01 1791.65,1056.05Z" style="fill:white;fill-rule:nonzero;"/>
            </g>
        </g>
        <g transform="matrix(1.68717,0,0,1.24112,-592.523,-179.418)">
            <g transform="matrix(0.735621,0,-0.239018,1,375.493,0)">
                <path d="M1761.16,752.063L1761.16,843.235C1761.16,843.235 1496.43,843.235 1496.43,843.235C1483.76,843.235 1473.86,847.065 1466.75,854.77C1459.48,862.661 1455.89,873.123 1455.89,886.1C1455.89,898.081 1458.58,907.556 1465.21,914.505C1471.51,921.107 1480.33,923.743 1491.56,923.743L1666.76,923.743C1666.76,923.743 1667.34,923.743 1667.52,923.745C1676.24,923.953 1685.48,925.141 1695.24,927.321C1705.14,929.532 1714.99,932.954 1724.78,937.587C1734.67,942.266 1744.08,948.165 1753.01,955.289C1762.1,962.536 1770.17,971.229 1777.2,981.396C1784.09,991.356 1789.59,1002.79 1793.62,1015.72C1797.53,1028.28 1799.54,1042.51 1799.54,1058.37C1799.54,1074.05 1797.54,1088.15 1793.57,1100.68C1789.61,1113.17 1784.37,1124.18 1777.87,1133.73C1771.33,1143.33 1763.67,1151.5 1754.88,1158.24C1746.17,1164.92 1737.16,1170.38 1727.84,1174.64C1718.47,1178.92 1708.94,1182.07 1699.26,1184.11C1689.48,1186.17 1680.27,1187.18 1671.63,1187.18L1367.46,1187.18L1367.46,1096.01L1666.76,1096.01C1679.62,1096.01 1689.65,1092.28 1696.77,1084.73C1704.03,1077.03 1707.6,1066.68 1707.6,1053.73C1707.6,1047.65 1706.73,1042.09 1704.87,1037.03C1703.23,1032.55 1700.94,1028.65 1697.88,1025.37C1695.03,1022.3 1691.52,1019.98 1687.41,1018.31C1682.67,1016.38 1677.41,1015.5 1671.63,1015.5L1496.43,1015.5C1483.34,1015.5 1469.2,1013.18 1454.03,1008.5C1438.43,1003.7 1423.96,995.945 1410.61,985.262C1397.2,974.54 1385.96,960.542 1377.07,943.172C1368.45,926.348 1363.94,905.765 1363.94,881.465C1363.94,857.614 1368.22,837.505 1376.68,821.095C1385.1,804.756 1395.68,791.475 1408.36,781.225C1421.1,770.936 1434.91,763.517 1449.79,758.933C1464.73,754.328 1478.66,752.063 1491.56,752.063L1761.16,752.063ZM1745.39,767.063L1496.43,767.063C1484.72,767.063 1472.1,769.194 1458.52,773.377C1444.88,777.582 1432.23,784.421 1420.55,793.859C1408.83,803.335 1399.09,815.641 1391.3,830.746C1383.55,845.782 1379.72,864.247 1379.72,886.1C1379.72,907.503 1383.32,925.591 1390.91,940.408C1398.22,954.679 1407.3,966.267 1418.31,975.076C1429.37,983.924 1441.36,990.332 1454.28,994.314C1467.62,998.425 1480.05,1000.5 1491.56,1000.5L1666.76,1000.5C1675.04,1000.5 1682.58,1001.97 1689.36,1004.73C1696.77,1007.74 1703.03,1012.06 1708.18,1017.59C1713.13,1022.9 1717,1029.16 1719.65,1036.4C1722.09,1043.05 1723.37,1050.38 1723.37,1058.37C1723.37,1074.33 1718.83,1087.02 1709.88,1096.51C1700.79,1106.15 1688.06,1111.01 1671.63,1111.01L1383.23,1111.01L1383.23,1172.18L1666.76,1172.18C1674.52,1172.18 1682.79,1171.24 1691.57,1169.39C1700.45,1167.52 1709.18,1164.62 1717.77,1160.7C1726.42,1156.75 1734.79,1151.66 1742.88,1145.46C1750.89,1139.31 1757.88,1131.85 1763.84,1123.09C1769.84,1114.28 1774.66,1104.1 1778.31,1092.57C1781.96,1081.08 1783.77,1068.12 1783.77,1053.73C1783.77,1039.51 1782.06,1026.78 1778.56,1015.52C1775.16,1004.62 1770.61,994.958 1764.8,986.559C1759.13,978.366 1752.66,971.337 1745.34,965.498C1737.86,959.536 1729.99,954.595 1721.71,950.68C1713.34,946.72 1704.93,943.794 1696.47,941.904C1687.87,939.982 1679.72,938.924 1672.22,938.743L1496.43,938.743C1478.75,938.743 1465.03,932.888 1455.11,922.493C1445.53,912.447 1440.12,898.785 1440.12,881.465C1440.12,865.535 1444.63,852.755 1453.57,843.068C1462.67,833.195 1475.33,828.235 1491.56,828.235L1745.39,828.235L1745.39,767.063Z" style="fill:white;"/>
            </g>
        </g>
        <g transform="matrix(1.68717,0,0,1.24112,-592.523,-179.418)">
            <g transform="matrix(0.735621,0,-0.239018,1,358.446,0)">
                <path d="M1310.44,1008L1077.09,1008L1077.09,931.243L1310.44,931.243L1310.44,1008ZM1344.42,835.735L1039.15,835.735L1039.15,1179.68L962.975,1179.68L962.975,797.942C962.975,792.669 963.951,787.688 965.904,783.001C967.858,778.313 970.543,774.212 973.961,770.696C977.379,767.181 981.432,764.446 986.119,762.493C990.807,760.54 995.885,759.563 1001.35,759.563L1344.42,759.563L1344.42,835.735Z" style="fill:white;fill-rule:nonzero;"/>
            </g>
        </g>
        <g transform="matrix(1.68717,0,0,1.24112,-592.523,-179.418)">
            <g transform="matrix(0.735621,0,-0.239018,1,358.446,0)">
                <path d="M1352.31,843.235L1047.03,843.235L1047.03,1187.18L955.089,1187.18C955.089,1187.18 955.089,795.625 955.089,795.625C955.089,789.594 956.195,783.894 958.429,778.533C960.616,773.285 963.625,768.693 967.452,764.756C971.33,760.768 975.93,757.668 981.248,755.452C986.683,753.188 992.575,752.063 998.917,752.063L1352.31,752.063L1352.31,843.235ZM1003.79,767.063C984.337,767.284 971.075,782.044 970.861,800.26L970.861,1172.18L1031.26,1172.18L1031.26,828.235L1336.53,828.235L1336.53,767.063L1003.79,767.063ZM1318.32,923.743L1318.32,1015.5L1069.21,1015.5L1069.21,923.743L1318.32,923.743ZM1084.98,938.743L1084.98,1000.5L1302.55,1000.5L1302.55,938.743L1084.98,938.743Z" style="fill:white;"/>
            </g>
        </g>
        <g transform="matrix(1.68717,0,0,1.24112,-592.523,-179.418)">
            <g transform="matrix(0.735621,0,-0.239018,1,342.896,0)">
                <rect x="815.74" y="759.563" width="76.172" height="420.117" style="fill:white;fill-rule:nonzero;"/>
            </g>
        </g>
        <g transform="matrix(1.68717,0,0,1.24112,-592.523,-179.418)">
            <g transform="matrix(0.735621,0,-0.239018,1,342.896,0)">
                <path d="M899.798,1187.18L899.798,752.063L807.854,752.063L807.854,1187.18L899.798,1187.18ZM823.626,767.063L823.626,1172.18L884.026,1172.18L884.026,767.063L823.626,767.063Z" style="fill:white;"/>
            </g>
        </g>
        <g transform="matrix(1.68717,0,0,1.24112,-592.523,-179.418)">
            <g transform="matrix(0.338231,0,-0.192582,0.805724,632.93,144.561)">
                <rect x="139.086" y="763.292" width="475.069" height="521.416" style="fill:rgb(255,85,0);"/>
            </g>
        </g>
        <g transform="matrix(1.68717,0,0,1.24112,-592.523,-179.418)">
            <g transform="matrix(0.338231,0,-0.192582,0.805724,632.93,144.561)">
                <path d="M631.291,753.992L121.95,753.992L121.95,1294.01L631.291,1294.01L631.291,753.992ZM156.222,772.592L156.222,1275.41L597.019,1275.41L597.019,772.592L156.222,772.592Z" style="fill:rgb(255,85,0);"/>
            </g>
        </g>
    </g>
</svg>
